Newaita-dark/.LP/22/network-wired-offline.svg

<?xml version="1.0" encoding="UTF-8"?>
<svg xmlns="http://www.w3.org/2000/svg" xmlns:xlink="http://www.w3.org/1999/xlink" width="22pt" height="22pt" viewBox="0 0 22 22" version="1.1">
<g id="surface1">
<path style=" stroke:none;fill-rule:nonzero;fill:rgb(93.725491%,32.549021%,31.37255%);fill-opacity:1;" d="M 14.386719 14.105469 C 14.03125 14.460938 14.03125 15.035156 14.386719 15.390625 L 15.996094 17 L 14.386719 18.605469 C 14.03125 18.964844 14.03125 19.539062 14.386719 19.894531 C 14.746094 20.25 15.316406 20.25 15.675781 19.894531 L 17.28125 18.285156 L 18.890625 19.894531 C 19.246094 20.25 19.820312 20.25 20.175781 19.894531 C 20.53125 19.539062 20.53125 18.964844 20.175781 18.605469 L 18.570312 17 L 20.175781 15.390625 C 20.53125 15.035156 20.53125 14.460938 20.175781 14.105469 C 19.820312 13.75 19.246094 13.75 18.890625 14.105469 L 17.28125 15.714844 L 15.675781 14.105469 C 15.316406 13.75 14.746094 13.75 14.386719 14.105469 Z M 14.386719 14.105469 "/>
<path style=" stroke:none;fill-rule:nonzero;fill:rgb(25.882354%,25.882354%,25.882354%);fill-opacity:1;" d="M 3.636719 3.355469 C 2.628906 3.355469 1.820312 4.167969 1.820312 5.175781 L 1.820312 15.179688 C 1.820312 16.1875 2.628906 17 3.636719 17 L 4.546875 17 L 4.546875 17.074219 C 4.546875 18.039062 5.359375 18.820312 6.367188 18.820312 L 12.28125 18.820312 L 12.28125 17 L 7.277344 17 C 6.773438 17 6.367188 16.59375 6.367188 16.089844 L 6.367188 15.179688 L 4.546875 15.179688 C 4.042969 15.179688 3.636719 14.773438 3.636719 14.269531 L 3.636719 6.085938 C 3.636719 5.582031 4.042969 5.175781 4.546875 5.175781 L 17.28125 5.175781 C 17.785156 5.175781 18.191406 5.582031 18.191406 6.085938 L 18.191406 11.597656 C 18.335938 11.5625 18.488281 11.542969 18.648438 11.542969 L 20.011719 11.542969 L 20.011719 5.175781 C 20.011719 4.167969 19.199219 3.355469 18.191406 3.355469 Z M 3.636719 3.355469 "/>
<path style=" stroke:none;fill-rule:nonzero;fill:rgb(100%,65.490198%,14.901961%);fill-opacity:1;" d="M 10.003906 5.175781 L 10.003906 6.085938 C 10.003906 6.589844 10.402344 6.992188 10.898438 6.992188 L 10.933594 6.992188 C 11.425781 6.992188 11.824219 6.589844 11.824219 6.085938 L 11.824219 5.175781 Z M 10.003906 5.175781 "/>
<path style=" stroke:none;fill-rule:nonzero;fill:rgb(100%,65.490198%,14.901961%);fill-opacity:1;" d="M 7.277344 5.175781 L 7.277344 6.085938 C 7.277344 6.589844 7.675781 6.992188 8.167969 6.992188 L 8.203125 6.992188 C 8.699219 6.992188 9.097656 6.589844 9.097656 6.085938 L 9.097656 5.175781 Z M 7.277344 5.175781 "/>
<path style=" stroke:none;fill-rule:nonzero;fill:rgb(100%,65.490198%,14.901961%);fill-opacity:1;" d="M 4.546875 5.175781 L 4.546875 6.085938 C 4.546875 6.589844 4.945312 6.992188 5.4375 6.992188 L 5.476562 6.992188 C 5.96875 6.992188 6.367188 6.589844 6.367188 6.085938 L 6.367188 5.175781 Z M 4.546875 5.175781 "/>
<path style=" stroke:none;fill-rule:nonzero;fill:rgb(100%,65.490198%,14.901961%);fill-opacity:1;" d="M 12.734375 5.175781 L 12.734375 6.085938 C 12.734375 6.589844 13.132812 6.992188 13.625 6.992188 L 13.664062 6.992188 C 14.15625 6.992188 14.554688 6.589844 14.554688 6.085938 L 14.554688 5.175781 Z M 12.734375 5.175781 "/>
<path style=" stroke:none;fill-rule:nonzero;fill:rgb(100%,65.490198%,14.901961%);fill-opacity:1;" d="M 15.464844 5.175781 L 15.464844 6.085938 C 15.464844 6.589844 15.859375 6.992188 16.355469 6.992188 L 16.390625 6.992188 C 16.882812 6.992188 17.28125 6.589844 17.28125 6.085938 L 17.28125 5.175781 Z M 15.464844 5.175781 "/>
</g>
</svg>

<svg xmlns="http://www.w3.org/2000/svg" width="22pt" height="22pt" viewBox="0 0 22 22"><path d="M14.387 14.105a.908.908 0 0 0 0 1.286L15.997 17l-1.61 1.605a.912.912 0 0 0 1.289 1.29l1.605-1.61 1.61 1.61a.908.908 0 0 0 1.285 0 .912.912 0 0 0 0-1.29L18.57 17l1.606-1.61a.908.908 0 1 0-1.285-1.285l-1.61 1.61-1.605-1.61a.912.912 0 0 0-1.29 0zm0 0" fill="#ef5350"/><path d="M3.637 3.355a1.814 1.814 0 0 0-1.817 1.82V15.18c0 1.008.809 1.82 1.817 1.82h.91v.074c0 .965.812 1.746 1.82 1.746h5.914V17H7.277a.909.909 0 0 1-.91-.91v-.91h-1.82a.909.909 0 0 1-.91-.91V6.086c0-.504.406-.91.91-.91H17.28c.504 0 .91.406.91.91v5.512c.145-.036.297-.055.457-.055h1.364V5.176c0-1.008-.813-1.82-1.82-1.82zm0 0" fill="#424242"/><path d="M10.004 5.176v.91c0 .504.398.906.894.906h.036c.492 0 .89-.402.89-.906v-.91zm0 0M7.277 5.176v.91c0 .504.399.906.891.906h.035a.897.897 0 0 0 .895-.906v-.91zm0 0M4.547 5.176v.91c0 .504.398.906.89.906h.04c.492 0 .89-.402.89-.906v-.91zm0 0M12.734 5.176v.91c0 .504.399.906.891.906h.04c.491 0 .89-.402.89-.906v-.91zm0 0M15.465 5.176v.91c0 .504.394.906.89.906h.036c.492 0 .89-.402.89-.906v-.91zm0 0" fill="#ffa726"/></svg>
